X:1
T:Passacaglia
T:Passacaglia
T:in C-Moll, BWV 582 für zwei Akkordeons 
T:J. S. Bach
C:J. S. Bach
%%score [ { ( 1 3 4 ) | 2 } { ( 5 7 8 ) | 6 } ]
L:1/8
Q:1/4=65
M:3/4
K:Eb
V:1 treble nm="Akkordeon 1" snm="A1"
V:3 treble 
V:4 treble 
V:2 bass 
V:5 treble nm="Akkordeon 2" snm="A2"
V:7 treble 
V:8 treble 
V:6 bass 
V:1
"^\n" z2 | z6 | z6 | z6 | z6 | z6 | z6 | z6 | z4 z c- | c>d =B2 z e- | e>f d2 z d- | d>e c2 z c- | %12
 c>d =B2 z a- | a>b g2 z f- | f>g e2 z e- | e>f d2 z d- | d>e c2 z c- | c>d =B2 z _B- | %18
 B>c A2 z G- | G>A F2 z A- | AG MG2 z F- | F>G E2 z D- | D>E C2 z C- | C>D P=B,3 B, | CGcdef | %25
 d4 g2- | g2 f2 e2- | egfe dc | =B2 z2 z a | gf e2 z a | gf e2 z a | gfed c=B | [Ec]2 z2 z G/=A/ | %33
 =BB/c/ dc/d/ e2- | e3 d/c/ =B2 | z c/d/ ef/g/ ad/c/ | =B2 z g/=a/ =ba/b/ | c'g/f/ ge dc/d/ | %38
 ec/=B/ cG Aa | gc/=B/ cE/D/ PD>C | Cg/G/ cd/e/ e2 | d z z d/=B/ e2- | ee/c/ f2- fe/g/ | %43
 cc'/c/ fg/a/ Pa3/2g/4a/4 | gd/D/ G=A/=B/ PB2 | cg/G/ cd ed/f/ | ec'/c/ fg af- | fg/d/ e>f Pd>e | %48
 c2 z2 z/ =A/=B/c/ | =B2 z2 z/ e/f/g/ | a2 z2 z/ g/=a/=b/ | c'2 z2 z/ d/e/f/ | =B2 z2 z/ E/F/G/ | %53
 E2 z2 z/ =B/c/d/ | e2 z2 z/ =B/c/d/ | e/g/f/e/ d4 | c/c/B/A/ G/A/G/F/ E z | %57
 z/ g/f/e/ d/e/d/e/ c2- | c/b/a/g/ f/e/d/c/ =B2 | c/f/e/d/ c/B/A/G/ A2 | G/g/f/e/ d/e/d/e/ f2- | %61
 f/e/d/c/ =B/=A/B/c/ d2- | d/f/e/d/ c>B A2- | A/A/G/F/ E/4F/4G/F/G/4A/4 PD>E | C2 z2 z2 | %65
 z2 z/ d/e/f/ g/f/e/d/ | c/_d/c/B/ A/f/g/a/ =B2 | z/ c/d/e/ f/g/f/e/ d/=a/=b/c'/ | %68
 =b/c'/b/=a/ gf/e/ f2- | f/a/g/f/ e/g/f/e/ d2- | d/f/e/d/ c/e/d/c/ _d/e/d/c/ | %71
 =B/c/d- d/e/d/c/- cB | c2 z/ G,/=B,/G,/ PC2 | z/ G/=B/G/ d2 e2- | e2 z/ _d/f/d/- d2- | d2 c2 =d2 | %76
 =B2 z2 z2 | z2 z/ c/e/c/ f/d/f/d/ | e2 z/ c/e/c/ f/d/f/d/ | e2 z/ c/e/c/ f/d/f/d/ | %80
 e/c'/b/a/ g/f/e/d/ c/e/d/c/ | =B/c/B/=A/ G/F/E/D/ C/b/a/g/ | a/b/a/g/ f/e/d/c/ =B/d/c/B/ | %83
 c/d/c/B/ A/G/F/E/ D/E/D/C/ | =B,/C/B,/=A,/ G,/A,/B,/C/ B,/D/C/B,/ | C/D/E/F/ G/=A/=B/c/ d/f/e/d/ | %86
 e/g/c'/b/ a/g/f/e/ d/e/d/c/ | =B/c/d/e/ d/c/B/=A/ G/_A/G/F/ | E/F/G/A/ G/F/E/D/ C/E/D/C/ | z6 | %90
 z6 | z6 | z6 | z6 | z6 | z6 | z6 | z G=A=B c2- | c/_d/B/c/ A/B/G/A/ F/G/=E/G/ | F z z2 z =A | %100
 d/e/c/d/ =B/c/=A/B/ G/_A/F/G/ | EG cB AG/F/ | G/A/F/G/ E/F/D/E/ CF- | F/G/E/F/ D=B, CB, | C4 z2 | %105
 z2 c/e/d/c/ g2 | c/=e/d/c/ f3 e | f/a/g/f/ c'2- c'/e/d/c/ | =B2 c2 d2 | Gc- c/c/=B/=A/ GF | %110
 EA- A/G/c/B/ A/f/g/a/ | =B2 c/e/d/c/ g2- | g/=b/=a/g/ c'c z/ g/e/c/ | =BG z4 | z6 | z6 | z6 | z6 | %118
 z6 | z6 | E z z2 c/e/g/c'/ | z2 z2 E/c/g/c'/ | z2 z2 G/e/g/=b/ | z2 z2 F/d/a/c'/ | %124
 z2 z2 D/d/g/=b/ | z2 z2 =B,/G/d/f/ | z2 z2 F,/D/A/f/ | z2 z2 z f/=b/ | z E/G/ z2 z [Gc] | %129
 z d3- dc | z c3- c=B | z e3- ed | z d3- df | z g3- gf | z g3- gf | z g3- gf | %136
 z g3- (3g/f/e/(3e/d/c/ | (3c/=B/=A/(3A/B/c/ (3B/c/d/(3d/e/f/ (3e/f/g/(3g/a/b/ | %138
 (3a/g/f/(3f/e/d/ (3d/e/f/(3f/g/a/ P=b2 | (3c'/b/a/(3a/g/f/ (3f/e/d/(3d/e/f/ (3f/g/=a/(3a/=b/c'/ | %140
 M=b>=a b z z =B, | (3C/D/E/(3E/F/G/ (3G/=A/=B/(3B/c/d/ (3d/e/f/(3e/f/d/ | %142
 e(3g/f/e/ (3e/d/c/(3c'/b/a/ (3a/g/f/(3f/e/d/ | (3d/c/=B/(3B/c/d/ (3d/e/f/(3f/g/a/ PB>c | %144
 c(3G/F/E/ (3E/D/C/C c2- | c=B/=A/ Bc/d/ e2- | ed/c/ de/f/ =B2- | Bc/=B/ cd/e/ f2- | %148
 fe/d/ ef/g/ d2- | dc/=B/ cd/e/ f2- | fe/d/ ef/g/ a2- | ag/f/ gf/e/ ed/c/ | c2- cc'/=b/ c'c- | %153
 c2- c/d/c/=B/ c2- | c/d/c/=B/ c2- c/d/c/B/ | c2- c/d/c/=B/ c2- | c/d/c/=B/ cB/=A/ B2- | %157
 B/d/c/=B/ c>e d/f/e/d/ | e2- e/g/f/e/ a2 | d2- d/e/d/c/- c/d/c/=B/ | c2 z2 z e- | %161
 e/f/e/d/ e2- e/f/e/d/ | e2- e/f/e/d/ e2- | e/f/e/d/ e2- e/f/e/d/ | e2- e/g/f/e/ da | %165
 g2- g/a/g/f/ g2- | g/a/g/f/ e2- e/f/e/d/ | e2- e/f/e/d/ e/f/e/d/ | c/d/c/=B/ c/B/c/d/ [Gce]2 |] %169
V:2
 z2 | z6 | z6 | z6 | z6 | z6 | z6 | z6 |[K:treble] z4 z G- | G2 G2 z c- | c2 A2 z G- | %11
 GF- F2 z A- | A2 G2 z =B- | B2 c2 z A- | A2 G2 z A- | AG F2 z F- | F>G E2 z G- | G2 G2 z G- | %18
 G2 F2 z E- | E2 D2 z E- | E2 D2 z =B,- | B,2 C2 z A,- | A,G,- G,2 z A,- | A,3 z z2 | z2 z G,CD | %25
 =B,3 C _DE | CF DC =B,2 | CB,A,C FE | D3 E F2 | EF G2 D2 |[K:bass] z A,G,F,E,D, | E,F,G,A, G,2- | %32
 G, z z[K:treble] C/D/ EE/F/ | G4 GF/G/ | A4- AG/F/ | E3 D/E/ FA | GG/=A/ =BB/c/ d2 | G2 ec G2- | %38
 G2 z E/D/ EC/=B,/ | E2 EC =B,B, | C2 z2 z G/^F/ | Gd/D/ G2 z G/E/ | A2- AF G2 | E2 z2 z d/f/ | %44
 =B2 z2 z G/F/ | G2 z2 z G | G2 z2 z d/=A/ | D2 z4 | c2 z/ D/E/F/ G2- | G2 z/ G/=A/=B/ c2- | %50
 c2 z/ =A/=B/c/ BG- | G2 z/ G/A/B/ cA | G2 z/ =A,/=B,/C/ D2 | C2 z/ D/E/F/ G2- | G2 z/ E/F/G/ A2 | %55
 G4- G/A/G/F/ | E2 z2[K:bass] z/ G,/F,/E,/ | D,2 z2[K:treble] z/ F/E/D/ | C2 z2 z/ A/G/F/ | %59
 E2 z2 z/ G/F/E/ | D2 z2 z/ A/G/F/ | G2 z2[K:bass] D/C/=B,/A,/ | G,2 z2 z/ E/D/C/ | %63
 =B,2 z2 z/ A,/G,/F,/ | E,/C,/B,,/A,,/ G,,/F,,/E,,/D,,/ C,,/E/D/C/ | %65
 =B,2- B,/C/B,/=A,/ G,/E,/F,/G,/ | A,>B, C2 z/ G,/=A,/=B,/ | C/D/C/B,/ A,/C/D/E/ F/G/F/E/ | %68
 D2- D/E/D/C/ =B,/C/B,/=A,/ | G,2[K:treble] z/ C/D/E/ F/A/G/F/ | %70
[K:bass] z/ =B,/C/D/ z/ E,/F,/G,/ A,2 | G,=A,/=B,/ C/C,/D,/E,/ F,/_A,/G,/F,/ | %72
 E,C, z2 z/ C,/E,/C,/ | G,2 z/ G,/=B,/G,/ C2 | z/ C/E/C/ F4 | z2 z/ C/E/C/ F2 | %76
 D/G,/=B,/G,/ D/B,/D/B,/ F2 | G/G,/=B,/G,/ C2 z2 | z/ G,/=B,/G,/ C2 z2 | z/ G,/=B,/G,/ C2- C>B, | %80
 C2 z4 | z6 | z6 | z6 | z6 | z6 | z6 | z6 | z6 | =B,/C/B,/A,/ G,/F,/E,/D,/ C,/B/A/G/ | %90
 A/B/A/G/ F/E/D/C/ =B,/D/C/B,/ | C/D/C/B,/ A,/G,/F,/E,/ D,/E,/D,/C,/ | %92
 =B,,/C,/B,,/=A,,/ G,,/A,,/B,,/C,/ B,,/D,/C,/B,,/ | C,/D,/E,/F,/ G,/=A,/=B,/C/ D/F/E/D/ | %94
[K:treble] E/G/c/B/ A/G/F/E/ D/E/D/C/ | =B,/C/D/E/ D/C/B,/=A,/ G,/_A,/G,/F,/ | %96
[K:bass] E,/F,/G,/A,/ G,/F,/E,/D,/ C,/E,/D,/C,/ | G,/A,/F,/G,/ E,/F,/D,/E,/ C,/D,/B,,/C,/ | %98
 A,,4 _DC- | C/_D/B,/C/ A,C F/G/E/F/ | D2- D/E/C/D/ =B,/C/=A,/B,/ | %101
 C/D/B,/C/ A,/B,/G,/A,/ F,/G,/E,/D,/ | C, z z E, F,/G,/E,/F,/ | D,/E,/C,/D,/ =B,,D, E,F, | %104
 G,/A,/F,/G,/ E,/F,/D,/E,/ C, z | G4 E2 | A,3 _DB,C | F2 z2 A,2 | G,/A,/G,/F,/ E,D,/C,/ P=B,,2 | %109
 C,/E,/D,/C,/ G,3 G,, | A,,/C,/B,,/A,,/ E,=E, F,2- | F,/F,/E,/D,/ E,2 =B,,2 | C,4- C,C,, | %113
 z/ G,/=B,/D/ G/ z/ z E,/G,/C/E/ | z/ F,/A,/C/ F/ z/ z G,/=B,/E/G/ | %115
 z/ A,/C/E/ A/ z/ z F,/A,/D/F/ | z/ G,/=B,/D/ G/ z/ z D,/F,/_B,/D/ | %117
 z/ E,/G,/B,/ E/ z/ z =B,,/D,/G,/=B,/ | z/ C,/E,/G,/ C/ z/ z F,,/C,/D,/F,/ | %119
 z/ G,,/C,/E,/ G,/ z/ z G,,/=B,,/D,/G,/ | C,,/C,/E,/G,/ z4 | G,,/G,/=B,/D/ z4 | F,,/F,/A,/C/ z4 | %123
 A,,/A,/C/E/ z4 | G,,/G,/=B,/D/ z4 | E,,/E,/G,/C/ z4 | C,,/C,/E,/G,/ z4 | G,,/G,/C/E/ z2 G,/G/ z | %128
[K:bass] C,/C/ z z2 E,G, |[K:treble] z2 z G- GE | z2 z F EF | z2 z A- AA | z2 z G FF | z2 z c GG | %134
 z2 z c- cc | z2 z c- c=B | z4[K:bass] C,2 | G,4 E,2 | F,4 G,2 | A,4 F,2 | G,4 D,2 | E,4 =B,,2 | %142
 C,4 F,,2 | G,,6 | C,,4 C,,2 | z6 | z2 z2 D2- | DC- C2 z D | =B,C/B,/ CD/E/ B,2- | B,C/D/ E2 z D | %150
 C3 D/=E/ F2- | FE/D/ ED/C/ GF- | F[K:treble]E/D/ EE/D/ EG- | G4 G2 | A4 G2- | G4 A2 | %156
 G4- G/A/G/F/ | G2- G/A/G/F/ D2- | D2 C4 | =B,2 C2 DG,- | G,2- G,/A,/G,/F,/ C,C | %161
 z2 c/d/c/=B/ c2- | c/d/c/=B/ c2- c/d/c/B/ | c2- c/d/c/=B/ c2- | c/d/c/=B/ c/e/d/c/ BB | z6 | %166
 c2- c/d/c/B/ A2 |[K:bass] E,/F,/E,/D,/ E,>F, G,/F,/G,/A,/ | G,2- G,/A,/G,/F,/ [C,,C,]2 |] %169
V:3
 x2 | x6 | x6 | x6 | x6 | x6 | x6 | x6 | x6 | x6 | x6 | x6 | x6 | x6 | x6 | x6 | x6 | x6 | x6 | %19
 x6 | x6 | x6 | x6 | x6 | x6 | x6 | x6 | x6 | x6 | x6 | x6 | x6 | x6 | x6 | x6 | x6 | x6 | x6 | %38
 x6 | x6 | x6 | x6 | x6 | x6 | x6 | x6 | x6 | x6 | x6 | x6 | x6 | x6 | x6 | x6 | x6 | x6 | x6 | %57
 x6 | x6 | x6 | x6 | x6 | x6 | x6 | x6 | x6 | x6 | x6 | x6 | x6 | x6 | x6 | x6 | x6 | x6 | x6 | %76
 x6 | x6 | x6 | x6 | x6 | x6 | x6 | x6 | x6 | x6 | x6 | x6 | x6 | x6 | x6 | x6 | x6 | x6 | x6 | %95
 x6 | x6 | x6 | x6 | x6 | x6 | x6 | x6 | x6 | x6 | x6 | x6 | x6 | x6 | x6 | x6 | x6 | x6 | x6 | %114
 x6 | x6 | x6 | x6 | x6 | x6 | x6 | x6 | x6 | x6 | x6 | x6 | x6 | x6 | x6 | x z z/ ^F/G/D/ EC | %130
 x z z/ =E/F/C/- CD | x z z/ G/A/E/ FF | x z z/ ^F/G/D/- Dd | x z z/ =B/c/^F/ Gd | %134
 x z z/ =B/c/G/ AA | x z z/ =B/c/^F/ GG | x6 | x6 | x6 | x6 | x6 | x6 | x6 | x6 | x6 | x6 | x6 | %147
 x6 | x6 | x6 | x6 | x6 | x6 | x6 | x6 | x6 | x6 | x6 | x6 | x6 | x6 | x6 | x6 | x6 | x6 | x6 | %166
 x6 | x6 | x6 |] %169
V:4
 x2 | x6 | x6 | x6 | x6 | x6 | x6 | x6 | x6 | x6 | x6 | x6 | x6 | x6 | x6 | x6 | x6 | x6 | x6 | %19
 x6 | x6 | x6 | x6 | x6 | x6 | x6 | x6 | x6 | x6 | x6 | x6 | x6 | x6 | x6 | x6 | x6 | x6 | x6 | %38
 x6 | x6 | x6 | x6 | x6 | x6 | x6 | x6 | x6 | x6 | x6 | x6 | x6 | x6 | x6 | x6 | x6 | x6 | x6 | %57
 x6 | x6 | x6 | x6 | x6 | x6 | x6 | x6 | x6 | x6 | x6 | x6 | x6 | x6 | x6 | x6 | x6 | x6 | x6 | %76
 x6 | x6 | x6 | x6 | x6 | x6 | x6 | x6 | x6 | x6 | x6 | x6 | x6 | x6 | x6 | x6 | x6 | x6 | x6 | %95
 x6 | x6 | x6 | x6 | x6 | x6 | x6 | x6 | x6 | x6 | x6 | x6 | x6 | x6 | x6 | x6 | x6 | x6 | x6 | %114
 x6 | x6 | x6 | x6 | x6 | x6 | x6 | x6 | x6 | x6 | x6 | x6 | x6 | x6 | x6 | x6 | x6 | x6 | x6 | %133
 x6 | x6 | x6 | x6 | x6 | x6 | x6 | x6 | x6 | x6 | x6 | x4 G2- | G4 z2 | x6 | x6 | x6 | x6 | x6 | %151
 x6 | x6 | x6 | x6 | x6 | x6 | x6 | x6 | x6 | x6 | x6 | x6 | x6 | x6 | x6 | x6 | x6 | x6 |] %169
V:5
 z2 | z6 | z6 | z6 | z6 | z6 | z6 | z6 | z4 z e- | ed- d2 z g- | gf- f2 z =B- | B2 c2 z e- | %12
 ed- d2 z f- | fe- e2 z d- | dc- c2 z c- | c2- c>d =B2 | cG- G2 z e- | ed- d2 z _d- | %18
 dc- c2 z =B- | Bc- c2 z c- | c>d =B2 z A- | AG- G2 z F- | F2 E2 z E | ED- D[FA] [EG]>[DF] | %24
 E2 z4 | z dga bc' | a3 a gf | ecfg a2- | aagc' =b2 | c'3 a gf | ed c4- | c[=Ba][cg][df] e[df] | %32
 cC/D/ EE/F/ Gc | dG/=A/ =BA/B/ c2- | cd/e/ ff/e/ d2 | c2 z2 z f/e/ | %36
 d[G=B]/[=Ac]/ [Bd][Bd]/[ce]/ [df]2 | c'e'/d'/ c'g/f/ gG | ce/d/ ec/=B/ cE/D/ | Ce/d/ eG/F/ GD | %40
 [CE]2 z g/G/ c2 | =B2 z B/G/ cC | c2 z d/=A/ =B2 | c2 z c'/c/ f2 | d2 z d/D/ Gd | %45
 c2 z g/G/ c=B/d/ | c2 z c'/c/ fD/e/ | z2 z2 z g/d/ | e/G/=A/=B/ c>d e2 | z/ d/e/f/ g4 | %50
 z/ c/d/e/ f>e df | e/c/d/e/ f>g af | d/D/E/F/ G>=A =B2 | z/ G/=A/=B/ c2 d2 | z/ G/=A/=B/ c4- | %55
 c2- c/c/=B/=A/ B2 | c2 z/ f/e/d/ c/e/d/c/ | =B2 z/ c'/=b/=a/ g/_a/g/_b/ | a2 z/ g/f/e/ d/f/e/d/ | %59
 c2 z/ g/f/e/ d/e/d/c/ | =B2 z/ c'/=b/=a/ b2 | c'2 z/ g/f/e/ f/a/g/f/ | e2 z/ b/a/g/ f>e | %63
 d>d c/e/d/c/ =B2 | c2 z2 z2 | z/ d/e/f/ g/=b/c'/d'/ e'/d'/c'/_b/ | a/c/d/=e/ f/g/f/_e/ d/a/g/f/ | %67
 e/f/e/d/ c z z2 | z/ ^f/g/=a/ =b/a/b/c'/ d'2- | d'/g/=a/=b/ c'2 z2 | e2- e/c/d/e/ f2- | %71
 f/a/g/f/ e/g/f/e/ d2 | c/c/e/c/ g>f Me2 | d2 z g3 | a2 z2 b2 | z/ e/g/e/ a4 | %76
 g2 z/ g/=b/g/ d'/b/d'/b/ | c'2 z/ e/g/e/ a2 | g2 z/ e/g/e/ a2 | g2 z/ e/g/e/ d2 | c2 z2 [eg]2 | %81
 [dg]2 z2 [cg]2 | [cf]2 z2 [fg]2 | [ce]2 z2 [Af]2 | [Gd]2 z2 [Fd]2 | [Gc]2 z2 [Gg]2 | %86
 [cg]2 z2 [Af]2 | [Gd]2 z2 [=Bd]2 | [Gc]2 z2 c2 | g4 e2 | f4 g2 | a4 f2 | g4 f2 | e4 =B2 | c4 F2 | %95
 G6 | C4 c2 | g4 e2 | f4 g2 | a3 g f2 | g4 d2 | e4 =B2 | c4 F2 | G6 | C4 c/e/d/c/ | %105
 G/=B/=A/G/ c2- c/_d/c/_B/ | f2- f/a/g/f/ g/b/a/g/ | a2- a/b/a/g/ f2 | g2- g/g/f/e/ d/f/e/d/ | %109
 e2- e/e/d/c/ =B/d/c/B/ | c2 z/ B/A/G/ F/A/G/F/ | G2- G/G/F/E/ D/F/E/D/ | E2- E/F/E/D/ C z | %113
 z2 z/ =B/d/g/ z/ g/e/c/ | af z/ A/c/f/ z/ g/e/=B/ | cA z/ c/e/a/ z/ a/f/d/ | %116
 =BG z/ B/d/g/ z/ a/f/_B/ | ge z/ G/B/e/ z/ f/d/G/ | ec z/ E/G/c/ z/ A/F/D/ | %119
 MEC z/ C/E/G/ =B,/D/F/B,/ | C z C/E/G/c/ z2 | z2 G/=B/d/g/ z2 | z2 F/A/c/f/ z2 | z2 A/c/e/a/ z2 | %124
 z2 G/=B/d/g/ z2 | z2 E/G/c/e/ z2 | z2 C/E/G/c/ z2 | z2 G/c/e/g/ z2 | z2 c/e/g/c'/ z e | %129
 z/ c'/d'/=a/ =b2- bg | z/ b/c'/g/ a2 gg | z/ d'/e'/=b/ c'2- c'c' | z/ c'/d'/=a/ =b2- b[dfb] | %133
 z/ ^f/g/d/ e2 d[d=f] | z/ f/g/d/ e2- ed | z/ f/g/d/ e2 dd | z/ f/g/d/ e2- e z | %137
 (3E/D/C/(3C/=B,/=A,/ (3G,/A,/B,/(3B,/C/D/ (3C/D/E/(3E/F/G/ | %138
 (3F/G/A/(3A/G/F/ (3F/E/D/(3D/E/F/ (3F/G/A/G/>F/ | E(3c/B/A/ (3A/G/F/(3F/E/D/ (3D/E/F/(3F/G/A/ | %140
 (3G/=A/=B/(3B/c/d/ (3d/e/f/(3f/g/a/ (3a/g/f/(3f/e/d/ | g2 z2 z g- | %142
 (3g/f/e/(3e/d/c/ (3c/B/A/(3A/G/F/ (3F/E/D/(3D/C/=B,/ | %143
 (3=B,/=A,/G,/(3G,/A,/B,/ (3B,/C/D/(3D/E/F/ (3F/G/A/(3G/A/F/ | (3E/F/D/C z2 E2- | ED/C/ DE/F/ G2- | %146
 GF/E/ FG/A/ =B,G | FE/D/ EF/G/ A2 | G4 z F | G3 F/G/ A2- | AG/F/ GA/B/ cd | =B2 c3 B | %152
 c G2 G/F/ CE- | E/F/E/D/ E2- E/F/E/D/ | E2- E/F/E/D/ E2- | E/F/E/D/ E2- E/F/E/D/ | %156
 E2- E/E/D/C/ D2- | D/F/E/D/ C2 G2- | G/A/G/F/ G2- G/A/G/F/- | F/A/G/F/ E2 F2- | %160
 F/A/G/F/ E/F/E/D/ C z | z2 E/F/E/D/ E2- | E/F/E/D/ E2- E/F/E/D/ | E>F E/F/E/D/ E2- | %164
 E/F/E/D/ E/E/F/G/ AF | E/F/E/D/ E2 F/A/G/F/ | E/F/E/D/ C2- C/D/C/=B,/ | G/A/G/F/ G>A G/A/G/F/ | %168
 E/F/E/D/ E/D/E/F/ [EGc]2 |] %169
V:6
 C,2 | G,,4 E,,2 | F,,4 G,,2 | A,,4 F,,2 | G,,4 D,,2 | E,,4 =B,,2 | C,4 F,,2 | G,,6 | C,4 C,2 | %9
 G,,4 E,,2 | F,,4 G,,2 | A,,4 F,,2 | G,,4 D,,2 | E,,4 =B,,2 | C,4 F,,2 | G,,6 | C,4 C,2 | %17
 G,,4 E,,2 | F,,4 G,,2 | A,,4 F,,2 | G,,4 D,,2 | E,,4 =B,,2 | C,4 F,,2 | G,,6 | C,4 C,2 | %25
 G,,4 E,,2 | F,,4 G,,2 | A,,4 F,,2 | G,,4 D,,2 | E,,4 =B,,2 | C,4 F,,2 | G,,6 | C,4 C,2 | %33
 G,,4 E,,2 | F,,4 G,,2 | A,,4 F,,2 | G,,4 D,,2 | E,,4 =B,,2 | C,4 F,,2 | G,,6 | C,4 z z/ C,/ | %41
 G,,2 z2 z z/ C,/ | F,,2 z2 z G,,/E,,/ | A,,2 z2 z F,,/D,,/ | G,,2 z2 z G,,/D,,/ | %45
 E,,2 z2 z G,,/=B,,/ | C,2 z2 z z/ F,,/ | G,,6 | C,4 C,2 | G,,4 E,,2 | F,,4 G,,2 | A,,4 F,,2 | %52
 G,,4 D,,2 | E,,4 =B,,2 | C,4 F,,2 | G,,6 | C,4 C,2 | G,,4 E,,2 | F,,4 G,,2 | A,,4 F,,2 | %60
 G,,4 D,,2 | E,,4 =B,,2 | C,4 F,,2 | G,,6 | C,4 C,2 | G,,4 E,,2 | F,,4 G,,2 | A,,4 F,,2 | %68
 G,,4 D,,2 | E,,4 =B,,2 | C,4 F,,2 | G,,6 | C,2 z2 z2 | =B,,2 z2 z/ E,,/G,,/E,,/ | %74
 F,,2 z2 z/ G,,/B,,/G,,/ | A,,2 z2 z/ F,,/A,,/F,,/ | G,,2 z2 z/ D,,/F,,/D,,/ | %77
 E,,2 z2 z/ =B,,/D,,/B,,/ | C,2 z2 z/ F,,/A,,/F,,/ | G,,2 z2 z/ G,,/F,,/G,,/ | C,2 z2 C,2 | %81
 G,,2 z2 E,,2 | F,,2 z2 G,,2 | A,,2 z2 F,,2 | G,,2 z2 D,,2 | E,,2 z2 =B,,2 | C,2 z2 F,,2 | %87
 G,,2 z2 G,,2 | C,2 z2 z2 | z6 | z6 | z6 | z6 | z6 | z6 | z6 | z2 z2 z A,, | %97
 =B,,G,, z G,, A,,_B,, | C,4 B,,C, | F,,C, F,,/G,,/E,,/F,,/ D,,/E,,/C,/D,,/ | %100
 =B,,/C,/=A,,/B,,/ G,,4 | C,3 C,, D,,2 | E,,G,, C,/D,,/B,,/C,/ =A,,2 | %103
 =B,,C, G,,/A,,/F,,/G,,/ E,,/F,,/D,,/F,,/ | E,,/F,,/D,,/E,,/ C,2 z2 | z6 | z6 | z6 | z6 | z6 | z6 | %111
 z6 | z6 | z6 | z6 | z6 | z6 | z6 | z6 | z6 | z6 | G,,4- G,, z | F,,4- F,, z | A,,4- A,, z | %124
 G,,4- G,, z | E,,4- E,, z | C,4- C, z | G,,4- G,, z | C,4 C,2 | G,4 E,G, | F,4 G,2 | A,4 F,D, | %132
 G,4 D,G,, | E,4 =B,,G,, | C,4 F,,2 | G,,4- G,,D,, | C,4 z2 | z6 | z6 | z6 | z6 | z6 | z6 | z6 | %144
 z4 z C, | G,,4 z E,, | F,,4 z G,, | A,,4 z F,, | G,,4 z D,, | E,,4 z =B,, | C,4 z F,, | %151
 G,,4 z G,, | C,4 C,2 | G,,4 E,,2 | F,,4 G,,2 | A,,4 F,,2 | G,,4 D,,2 | E,,4 =B,,2 | C,4 F,,2 | %159
 G,,6 | C,4 C,2 | G,,4 E,,2 | F,,4 G,,2 | A,,4 F,,2 | G,,4 D,,2 | E,,4 =B,,2 | C,4 F,,2 | G,,6 | %168
 G,,2- G,,/F,,/E,,/D,,/"^m" [C,C]2 |] %169
V:7
 x2 | x6 | x6 | x6 | x6 | x6 | x6 | x6 | x6 | x6 | x6 | x6 | x6 | x6 | x6 | x6 | x6 | x6 | x6 | %19
 x6 | x6 | x6 | x6 | x6 | x6 | x6 | x6 | x6 | x6 | x6 | x6 | x6 | x6 | x6 | x6 | x6 | x6 | x6 | %38
 x6 | x6 | x4 cC | x6 | x6 | x6 | x6 | x6 | x6 | x6 | x6 | x6 | x6 | x6 | x6 | x6 | x6 | x6 | x6 | %57
 x6 | x6 | x6 | x6 | x6 | x6 | x6 | x6 | x6 | x6 | x6 | x6 | x6 | x6 | x6 | x6 | x6 | x6 | x6 | %76
 x6 | x6 | x6 | x6 | x6 | x6 | x6 | x6 | x6 | x6 | x6 | x6 | x6 | x6 | x6 | x6 | x6 | x6 | x6 | %95
 x6 | x6 | x6 | x6 | x6 | x6 | x6 | x6 | x6 | x6 | x6 | x6 | x6 | x6 | x6 | x6 | x6 | x6 | x6 | %114
 x6 | x6 | x6 | x6 | x6 | x6 | x6 | x6 | x6 | x6 | x6 | x6 | x6 | x6 | x6 | x6 | x6 | x6 | x6 | %133
 x6 | x6 | x6 | x/ z/ z z/ =B/c/^F/ G-(3G/=F/E/ | x6 | x6 | x6 | x6 | x6 | x6 | x6 | x6 | x6 | x6 | %147
 x6 | x6 | x6 | x6 | x6 | x6 | x6 | x6 | x6 | x6 | x6 | x6 | x6 | x6 | C/D/C/=B,/ C2- C/D/C/B,/ | %162
 C2- C/D/C/=B,/ C2- | C/D/C/=B,/ C2- C/D/C/B,/ | C2- C/C/D/E/ F=B, | C2- C/C/=B,/=A,/ D2 | %166
 G,2- G,/B,/A,/G,/ F,2 | C2- C/D/C/=B,/ C/D/C/B,/ | C2- C2 x2 |] %169
V:8
 x2 | x6 | x6 | x6 | x6 | x6 | x6 | x6 | x6 | x6 | x6 | x6 | x6 | x6 | x6 | x6 | x6 | x6 | x6 | %19
 x6 | x6 | x6 | x6 | x6 | x6 | x6 | x6 | x6 | x6 | x6 | x6 | x6 | x6 | x6 | x6 | x6 | x6 | x6 | %38
 x6 | x6 | x6 | x6 | x6 | x6 | x6 | x6 | x6 | x6 | x6 | x6 | x6 | x6 | x6 | x6 | x6 | x6 | x6 | %57
 x6 | x6 | x6 | x6 | x6 | x6 | x6 | x6 | x6 | x6 | x6 | x6 | x6 | x6 | x6 | x6 | x6 | x6 | x6 | %76
 x6 | x6 | x6 | x6 | x6 | x6 | x6 | x6 | x6 | x6 | x6 | x6 | x6 | x6 | x6 | x6 | x6 | x6 | x6 | %95
 x6 | x6 | x6 | x6 | x6 | x6 | x6 | x6 | x6 | x6 | x6 | x6 | x6 | x6 | x6 | x6 | x6 | x6 | x6 | %114
 x6 | x6 | x6 | x6 | x6 | x6 | x6 | x6 | x6 | x6 | x6 | x6 | x6 | x6 | x6 | x6 | x6 | x6 | x6 | %133
 x6 | x6 | x6 | x3 c- c z | x6 | x6 | x6 | x6 | x6 | x6 | x6 | x6 | x6 | x6 | x6 | x6 | x6 | x6 | %151
 x6 | x6 | x6 | x6 | x6 | x6 | x6 | x6 | x6 | x6 | x6 | x6 | x6 | x6 | x6 | x6 | x6 | x6 |] %169

